src/data/imges/icon-4.svg

<svg xmlns="http://www.w3.org/2000/svg" width="48" height="48"><g fill="#F95738" fill-rule="evenodd"><path d="M24 36.622c-13.458 0-24-4.933-24-11.229 0-6.296 10.542-11.229 24-11.229s24 4.932 24 11.229c0 6.296-10.542 11.229-24 11.229Zm0-20.458c-11.925 0-22 4.226-22 9.229 0 5.003 10.075 9.229 22 9.229s22-4.227 22-9.229c0-5.003-10.075-9.229-22-9.229Z"/><path d="M24 48C10.767 48 0 37.858 0 25.393a1 1 0 1 1 2 0C2 36.756 11.869 46 24 46s22-9.244 22-20.607a1 1 0 1 1 2 0C48 37.858 37.233 48 24 48Z"/><path d="M38.382 34.34a1.002 1.002 0 0 1-.58-1.816c1.019-.724 2.233-1.888 2.233-3.317 0-3.239-6.443-6.707-16.035-6.707S7.964 25.968 7.964 29.207c0 .944.524 1.882 1.557 2.785a1 1 0 0 1-1.316 1.506c-1.466-1.282-2.241-2.766-2.241-4.291 0-4.882 7.922-8.707 18.036-8.707 10.113 0 18.035 3.825 18.035 8.707 0 1.807-1.063 3.518-3.075 4.948a.995.995 0 0 1-.578.185Z"/><ellipse cx="32.73" cy="29.139" rx="1.926" ry=".836"/><ellipse cx="26.87" cy="27.015" rx="2.915" ry="1.267"/><path d="M16.629 11.955a1 1 0 0 1-1-1V4.549a1 1 0 0 1 2 0v6.406a1 1 0 0 1-1 1ZM24 11.955a1 1 0 0 1-1-1V1a1 1 0 0 1 2 0v9.955a1 1 0 0 1-1 1ZM31.371 11.955a1 1 0 0 1-1-1V4.549a1 1 0 1 1 2 0v6.406a1 1 0 0 1-1 1Z"/></g></svg>

<?xml version="1.0" encoding="UTF-8" standalone="no"?>
<svg width="48px" height="48px" viewBox="0 0 48 48" version="1.1" xmlns="http://www.w3.org/2000/svg" xmlns:xlink="http://www.w3.org/1999/xlink">
    <!-- Generator: Sketch 39.1 (31720) - http://www.bohemiancoding.com/sketch -->
    <title>Slice 1</title>
    <desc>Created with Sketch.</desc>
    <defs></defs>
    <g id="Page-1" stroke="none" stroke-width="1" fill="none" fill-rule="evenodd">
        <g id="noun_105909_cc" fill="#F95738">
            <g id="Group">
                <path d="M24,36.622 C10.542,36.622 0,31.689 0,25.393 C0,19.097 10.542,14.164 24,14.164 C37.458,14.164 48,19.096 48,25.393 C48,31.689 37.458,36.622 24,36.622 L24,36.622 Z M24,16.164 C12.075,16.164 2,20.39 2,25.393 C2,30.396 12.075,34.622 24,34.622 C35.925,34.622 46,30.395 46,25.393 C46,20.39 35.925,16.164 24,16.164 L24,16.164 Z" id="Shape"></path>
                <path d="M24,48 C10.767,48 0,37.858 0,25.393 C0,24.84 0.448,24.393 1,24.393 C1.552,24.393 2,24.84 2,25.393 C2,36.756 11.869,46 24,46 C36.131,46 46,36.756 46,25.393 C46,24.84 46.447,24.393 47,24.393 C47.553,24.393 48,24.84 48,25.393 C48,37.858 37.233,48 24,48 L24,48 Z" id="Shape"></path>
                <path d="M38.382,34.34 C38.069,34.34 37.761,34.194 37.566,33.919 C37.247,33.469 37.352,32.845 37.802,32.524 C38.821,31.8 40.035,30.636 40.035,29.207 C40.035,25.968 33.592,22.5 24,22.5 C14.408,22.5 7.964,25.968 7.964,29.207 C7.964,30.151 8.488,31.089 9.521,31.992 C9.937,32.355 9.979,32.987 9.616,33.403 C9.253,33.82 8.62,33.862 8.205,33.498 C6.739,32.216 5.964,30.732 5.964,29.207 C5.964,24.325 13.886,20.5 24,20.5 C34.113,20.5 42.035,24.325 42.035,29.207 C42.035,31.014 40.972,32.725 38.96,34.155 C38.784,34.28 38.582,34.34 38.382,34.34 L38.382,34.34 Z" id="Shape"></path>
                <ellipse id="Oval" cx="32.73" cy="29.139" rx="1.926" ry="0.836"></ellipse>
                <ellipse id="Oval" cx="26.87" cy="27.015" rx="2.915" ry="1.267"></ellipse>
                <g transform="translate(15.000000, 0.000000)" id="Shape">
                    <path d="M1.629,11.955 C1.077,11.955 0.629,11.507 0.629,10.955 L0.629,4.549 C0.629,3.997 1.077,3.549 1.629,3.549 C2.181,3.549 2.629,3.997 2.629,4.549 L2.629,10.955 C2.629,11.507 2.181,11.955 1.629,11.955 L1.629,11.955 Z"></path>
                    <path d="M9,11.955 C8.448,11.955 8,11.507 8,10.955 L8,1 C8,0.448 8.448,0 9,0 C9.553,0 10,0.448 10,1 L10,10.955 C10,11.507 9.553,11.955 9,11.955 L9,11.955 Z"></path>
                    <path d="M16.371,11.955 C15.818,11.955 15.371,11.507 15.371,10.955 L15.371,4.549 C15.371,3.997 15.818,3.549 16.371,3.549 C16.924,3.549 17.371,3.997 17.371,4.549 L17.371,10.955 C17.371,11.507 16.924,11.955 16.371,11.955 L16.371,11.955 Z"></path>
                </g>
            </g>
        </g>
    </g>
</svg>
